X: 12668
T: Fast Boat To Kowloon
R: jig
M: 6/8
K: Gmajor
G3 GED|EGd BGE|GAB c2d|Ged B2A|GAB dBA|AGD E2B|
G2d GED|EGd BGE|GBd e2g-|gba g2e|d'ba ged|BGE G3|
G3 GED|EGd BGE|GAB c2d|Ged edB|edB BAB|GED EdB|
GdG GED|EGd BGE|GBd e2g-|gba g2e|d'ba ged|BGE G3||
|:Bed BAB|GED GBc|deg bab|age- e2g|
a2e ged|edB GAB|edB BGD|E3- E2_B|
Bed BAB|GED GBc|deg bab|abd'- d'3|
zae g2d|zeB d2B|1 A/A/AA AGE|G3- G2A:|2 A/A/AA AGE||

